images/svg/facebook_thumbs_up.svg

<svg viewBox="0 0 543 451" xmlns="http://www.w3.org/2000/svg"><path fill="#30418f" stroke="#30418f" stroke-width=".094" d="M289.9 45.9c2.6-1 5.4-.9 8.1-1 15.7.2 31.4.1 47 .1 5.1-.4 10.1 3.8 10 9 .2 10.3-.2 20.7.1 31 .4 6.7-2.3 13-3.9 19.3-1.8 6.9-5.5 13.4-5.3 20.7.1 19 0 38 0 57.1 21.4 0 42.8.1 64.2-.1 2.5-.1 4.9.6 7 1.9 9 5.9 19 10.1 28 16 2.4 1.5 2.8 4.5 2.9 7.1-.1 53.3-.1 106.7-.1 160-.3 8.2.6 16.4-.3 24.5-1.7 3.2-4.8 5.3-7.3 7.8-9.6 8.4-19.1 16.9-28.6 25.4-4.5 4-9 9.7-15.7 9.3H272c-5.4 0-11.6 1-16.1-2.9-11.3-9.1-23.2-17.4-34.5-26.5-1-.8-2.1-1.6-3.4-1.5-8.4-.6-16.7.1-24.9.9-12.1.1-24.1 0-36.2-.1-.1 5.7.2 11.4 0 17.1 0 2.6-2 4.6-3.2 6.8-3.2.5-6.4 1.2-9.7 1.2-37.3-.1-74.7 0-112 0-3.6-.1-7.8-1-9.6-4.5-2.2-4.8-1.2-10.3-1.4-15.5V210c.1-3.1.4-6.4 1.8-9.1 1.9-3.2 5.9-3.7 9.2-3.9 36.6 0 73.3.1 110-.1 3.7.2 8-.6 11.2 1.9 1.6 1.4 3.7 2.9 3.6 5.3.4 6.7 0 13.5.1 20.2 22.6-2.3 44-13.5 59.4-30 4.6-3.9 6.5-9.8 8.9-15.1 5.5-10.9 10.4-22.2 15.8-33.3 5.7-12.8 12.1-25.3 17.8-38.1 4.3-8.5 7.6-17.5 12.1-25.9 4.3-9.1 8.4-18.2 12.7-27.3 1.6-3.2 2.6-7.4 6.3-8.7m4.8 27.6c-2.4 3.6-4.2 7.5-5.8 11.4-1.9 5-5.5 9.3-6.4 14.7-.6.6-1.2 1.3-1.8 2-2.5 6.4-6.1 12.3-8.2 18.9-3.7 5.9-5.5 12.8-9.3 18.7-2.6 4-4 8.6-6.3 12.8-2.2 3.8-3 8.3-4.9 12.2-2.1 5.3-5.9 9.8-7.1 15.4-1.1 3.7-3.5 6.7-5.2 10.1-2.2 3.6-2.3 8.3-5.5 11.4-3.5 4.8-8.2 8.5-12.5 12.6-3.7 2.2-5.7 6.4-9.7 8.2-4 2.8-8.4 5-12.4 7.8-3.4 2.5-7.7 3-11.6 4.4-3.7 1.1-6.7 3.6-10.5 4.2-6.1 1.4-12.4 2.8-18.7 3.2-2.9 2.4-1.8 6.3-2 9.5.2 45.1 0 90.1.1 135.2 10.4-.1 20.7-.3 31.1-.1 9 .2 18-1.8 27-1.3 4.9-.4 10 .2 14 3.1 6.2 4.9 12.3 9.9 18.7 14.5 5.2 5 11.7 8.3 16.6 13.6 20.9.2 41.8 0 62.7.1 22.8-.2 45.6.2 68.5-.2 4.8-3.9 9.2-8.3 13.7-12.6 4.1-3.2 8.1-6.5 11.7-10.3 2.9-3.1 7.1-5.3 8.9-9.3.8-3.2.4-6.5.4-9.7-.3-13.5.5-27-.4-40.4.3-39.2-.1-78.4.2-117.7-.1-1.7 0-3.5-.8-5.1-4.8-2.4-9.6-5-14-8.2-5.1-3.1-11.2-4.1-17.2-3.9-17.7.2-35.3-.1-53 .2-4.8.8-9.6.1-14.2-1.5-2.7-5.7-3.2-12.2-2.8-18.4 0-18 0-36-.1-54 .1-7.6 3.5-14.5 5.2-21.8 2.1-4.1 3.1-8.7 4-13.3 0-7.5.3-15.1-.7-22.6.6-1.7.7-3.5.8-5.3-12.2-.3-24.3.2-36.5-.3-2.2 3.8-4.4 7.7-6 11.8M38.8 214.8c-.1 10.8-.5 21.6.2 32.4.1 3 .3 5.9.3 8.8 0 51.6.1 103.2 0 154.7h99.4c-.1-51.5.1-103.1 0-154.7 0-2.9.2-5.8.3-8.8.7-10.8.3-21.6.2-32.4-33.5-.2-66.9-.2-100.4 0z"/><path fill="#fff" stroke="#fff" stroke-width=".094" d="M294.7 73.5c1.6-4.1 3.8-8 6-11.8 12.2.5 24.3 0 36.5.3-.1 1.8-.2 3.6-.8 5.3-6.8 9.4-12.8 19.3-19.3 28.9-3 4.4-6.3 8.9-6.8 14.4-.9 7.4-1 14.8-1.8 22.3-1.8 14.6-2.3 29.3-4.1 43.9-.5 4-1 8-.5 12.1 2.8 2.2 6.4 2.8 9.8 3.8 5.8 1.3 11.5 2.9 17.1 4.7 4.6 1.6 9.4 2.3 14.2 1.5 17.7-.3 35.3 0 53-.2 6-.2 12.1.8 17.2 3.9 4.4 3.2 9.2 5.8 14 8.2.8 1.6.7 3.4.8 5.1-.3 39.3.1 78.5-.2 117.7-10.6 9.8-21.4 19.4-31.4 29.8-3.9 3.6-7.1 8.4-12.1 10.6-6.3 1.6-12.9.5-19.3.6-10.7-.5-21.3 1.1-32 1.1-11.4-.6-22.6 1.3-34 1.1-10 .2-20-1.2-30.1-1.1-3.7.1-7.6-.6-10.7-2.9-7.9-5.5-15.8-10.9-23.6-16.5-3.6-2.7-8.1-3.9-12.6-3.8-21.6.4-43.1 0-64.7.2.1-30.6 0-61.1 0-91.7.1-6.5.2-13-.5-19.5 6.3-.4 12.6-1.8 18.7-3.2 3.8-.6 6.8-3.1 10.5-4.2 3.9-1.4 8.2-1.9 11.6-4.4 4-2.8 8.4-5 12.4-7.8 4-1.8 6-6 9.7-8.2 4.3-4.1 9-7.8 12.5-12.6 3.2-3.1 3.3-7.8 5.5-11.4 1.7-3.4 4.1-6.4 5.2-10.1 1.2-5.6 5-10.1 7.1-15.4 1.9-3.9 2.7-8.4 4.9-12.2 2.3-4.2 3.7-8.8 6.3-12.8 3.8-5.9 5.6-12.8 9.3-18.7 2.1-6.6 5.7-12.5 8.2-18.9.6-.7 1.2-1.4 1.8-2 .9-5.4 4.5-9.7 6.4-14.7 1.6-3.9 3.4-7.8 5.8-11.4z"/><path fill="#e8e9e9" stroke="#e8e9e9" stroke-width=".094" d="M317.1 96.2c6.5-9.6 12.5-19.5 19.3-28.9 1 7.5.7 15.1.7 22.6-.9 4.6-1.9 9.2-4 13.3-1.7 7.3-5.1 14.2-5.2 21.8.1 18 .1 36 .1 54-.4 6.2.1 12.7 2.8 18.4-5.6-1.8-11.3-3.4-17.1-4.7-3.4-1-7-1.6-9.8-3.8-.5-4.1 0-8.1.5-12.1 1.8-14.6 2.3-29.3 4.1-43.9.8-7.5.9-14.9 1.8-22.3.5-5.5 3.8-10 6.8-14.4z"/><path fill="#7e8fbe" stroke="#7e8fbe" stroke-width=".094" d="M38.8 214.8c33.5-.2 66.9-.2 100.4 0 .1 10.8.5 21.6-.2 32.4-33.3.2-66.7.2-100 0-.7-10.8-.3-21.6-.2-32.4z"/><path fill="#e8e9e9" stroke="#e8e9e9" stroke-width=".094" d="M156.8 251c.2-3.2-.9-7.1 2-9.5.7 6.5.6 13 .5 19.5 0 30.6.1 61.1 0 91.7 21.6-.2 43.1.2 64.7-.2 4.5-.1 9 1.1 12.6 3.8 7.8 5.6 15.7 11 23.6 16.5 3.1 2.3 7 3 10.7 2.9 10.1-.1 20.1 1.3 30.1 1.1 11.4.2 22.6-1.7 34-1.1 10.7 0 21.3-1.6 32-1.1 6.4-.1 13 1 19.3-.6 5-2.2 8.2-7 12.1-10.6 10-10.4 20.8-20 31.4-29.8.9 13.4.1 26.9.4 40.4 0 3.2.4 6.5-.4 9.7-1.8 4-6 6.2-8.9 9.3-3.6 3.8-7.6 7.1-11.7 10.3-4.5 4.3-8.9 8.7-13.7 12.6-22.9.4-45.7 0-68.5.2-20.9-.1-41.8.1-62.7-.1-4.9-5.3-11.4-8.6-16.6-13.6-6.4-4.6-12.5-9.6-18.7-14.5-4-2.9-9.1-3.5-14-3.1-9-.5-18 1.5-27 1.3-10.4-.2-20.7 0-31.1.1-.1-45.1.1-90.1-.1-135.2z"/><path fill="#6276ae" stroke="#6276ae" stroke-width=".094" d="M39 247.2c33.3.2 66.7.2 100 0-.1 3-.3 5.9-.3 8.8.1 51.6-.1 103.2 0 154.7H39.3c.1-51.5 0-103.1 0-154.7 0-2.9-.2-5.8-.3-8.8z"/></svg>

<?xml version="1.0" encoding="UTF-8" ?>
<!DOCTYPE svg PUBLIC "-//W3C//DTD SVG 1.1//EN" "http://www.w3.org/Graphics/SVG/1.1/DTD/svg11.dtd">
<svg width="543pt" height="451pt" viewBox="0 0 543 451" version="1.1" xmlns="http://www.w3.org/2000/svg">
<path fill="#30418f" stroke="#30418f" stroke-width="0.09375" opacity="1.00" d=" M 289.9 45.9 C 292.5 44.9 295.3 45.0 298.0 44.9 C 313.7 45.1 329.4 45.0 345.0 45.0 C 350.1 44.6 355.1 48.8 355.0 54.0 C 355.2 64.3 354.8 74.7 355.1 85.0 C 355.5 91.7 352.8 98.0 351.2 104.3 C 349.4 111.2 345.7 117.7 345.9 125.0 C 346.0 144.0 345.9 163.0 345.9 182.1 C 367.3 182.1 388.7 182.2 410.1 182.0 C 412.6 181.9 415.0 182.6 417.1 183.9 C 426.1 189.8 436.1 194.0 445.1 199.9 C 447.5 201.4 447.9 204.4 448.0 207.0 C 447.9 260.3 447.9 313.7 447.9 367.0 C 447.6 375.2 448.5 383.4 447.6 391.5 C 445.9 394.7 442.8 396.8 440.3 399.3 C 430.7 407.7 421.2 416.2 411.7 424.7 C 407.2 428.7 402.7 434.4 396.0 434.0 C 354.7 434.0 313.3 434.0 272.0 434.0 C 266.6 434.0 260.4 435.0 255.9 431.1 C 244.6 422.0 232.7 413.7 221.4 404.6 C 220.4 403.8 219.3 403.0 218.0 403.1 C 209.6 402.5 201.3 403.2 193.1 404.0 C 181.0 404.1 169.0 404.0 156.9 403.9 C 156.8 409.6 157.1 415.3 156.9 421.0 C 156.9 423.6 154.9 425.6 153.7 427.8 C 150.5 428.3 147.3 429.0 144.0 429.0 C 106.7 428.9 69.3 429.0 32.0 429.0 C 28.4 428.9 24.2 428.0 22.4 424.5 C 20.2 419.7 21.2 414.2 21.0 409.0 C 21.0 342.7 21.0 276.3 21.0 210.0 C 21.1 206.9 21.4 203.6 22.8 200.9 C 24.7 197.7 28.7 197.2 32.0 197.0 C 68.6 197.0 105.3 197.1 142.0 196.9 C 145.7 197.1 150.0 196.3 153.2 198.8 C 154.8 200.2 156.9 201.7 156.8 204.1 C 157.2 210.8 156.8 217.6 156.9 224.3 C 179.5 222.0 200.9 210.8 216.3 194.3 C 220.9 190.4 222.8 184.5 225.2 179.2 C 230.7 168.3 235.6 157.0 241.0 145.9 C 246.7 133.1 253.1 120.6 258.8 107.8 C 263.1 99.3 266.4 90.3 270.9 81.9 C 275.2 72.8 279.3 63.7 283.6 54.6 C 285.2 51.4 286.2 47.2 289.9 45.9 M 294.7 73.5 C 292.3 77.1 290.5 81.0 288.9 84.9 C 287.0 89.9 283.4 94.2 282.5 99.6 C 281.9 100.2 281.3 100.9 280.7 101.6 C 278.2 108.0 274.6 113.9 272.5 120.5 C 268.8 126.4 267.0 133.3 263.2 139.2 C 260.6 143.2 259.2 147.8 256.9 152.0 C 254.7 155.8 253.9 160.3 252.0 164.2 C 249.9 169.5 246.1 174.0 244.9 179.6 C 243.8 183.3 241.4 186.3 239.7 189.7 C 237.5 193.3 237.4 198.0 234.2 201.1 C 230.7 205.9 226.0 209.6 221.7 213.7 C 218.0 215.9 216.0 220.1 212.0 221.9 C 208.0 224.7 203.6 226.9 199.6 229.7 C 196.2 232.2 191.9 232.7 188.0 234.1 C 184.3 235.2 181.3 237.7 177.5 238.3 C 171.4 239.7 165.1 241.1 158.8 241.5 C 155.9 243.9 157.0 247.8 156.8 251.0 C 157.0 296.1 156.8 341.1 156.9 386.2 C 167.3 386.1 177.6 385.9 188.0 386.1 C 197.0 386.3 206.0 384.3 215.0 384.8 C 219.9 384.4 225.0 385.0 229.0 387.9 C 235.2 392.8 241.3 397.8 247.7 402.4 C 252.9 407.4 259.4 410.7 264.3 416.0 C 285.2 416.2 306.1 416.0 327.0 416.1 C 349.8 415.9 372.6 416.3 395.5 415.9 C 400.3 412.0 404.7 407.6 409.2 403.3 C 413.3 400.1 417.3 396.8 420.9 393.0 C 423.8 389.9 428.0 387.7 429.8 383.7 C 430.6 380.5 430.2 377.2 430.2 374.0 C 429.9 360.5 430.7 347.0 429.8 333.6 C 430.1 294.4 429.7 255.2 430.0 215.9 C 429.9 214.2 430.0 212.4 429.2 210.8 C 424.4 208.4 419.6 205.8 415.2 202.6 C 410.1 199.5 404.0 198.5 398.0 198.7 C 380.3 198.9 362.7 198.6 345.0 198.9 C 340.2 199.7 335.4 199.0 330.8 197.4 C 328.1 191.7 327.6 185.2 328.0 179.0 C 328.0 161.0 328.0 143.0 327.9 125.0 C 328.0 117.4 331.4 110.5 333.1 103.2 C 335.2 99.1 336.2 94.5 337.1 89.9 C 337.1 82.4 337.4 74.8 336.4 67.3 C 337.0 65.6 337.1 63.8 337.2 62.0 C 325.0 61.7 312.9 62.2 300.7 61.7 C 298.5 65.5 296.3 69.4 294.7 73.5 M 38.8 214.8 C 38.7 225.6 38.3 236.4 39.0 247.2 C 39.1 250.2 39.3 253.1 39.3 256.0 C 39.3 307.6 39.4 359.2 39.3 410.7 C 72.4 410.7 105.6 410.7 138.7 410.7 C 138.6 359.2 138.8 307.6 138.7 256.0 C 138.7 253.1 138.9 250.2 139.0 247.2 C 139.7 236.4 139.3 225.6 139.2 214.8 C 105.7 214.6 72.3 214.6 38.8 214.8 Z" />
<path fill="#ffffff" stroke="#ffffff" stroke-width="0.09375" opacity="1.00" d=" M 294.7 73.5 C 296.3 69.4 298.5 65.5 300.7 61.7 C 312.9 62.2 325.0 61.7 337.2 62.0 C 337.1 63.8 337.0 65.6 336.4 67.3 C 329.6 76.7 323.6 86.6 317.1 96.2 C 314.1 100.6 310.8 105.1 310.3 110.6 C 309.4 118.0 309.3 125.4 308.5 132.9 C 306.7 147.5 306.2 162.2 304.4 176.8 C 303.9 180.8 303.4 184.8 303.9 188.9 C 306.7 191.1 310.3 191.7 313.7 192.7 C 319.5 194.0 325.2 195.6 330.8 197.4 C 335.4 199.0 340.2 199.7 345.0 198.9 C 362.7 198.6 380.3 198.9 398.0 198.7 C 404.0 198.5 410.1 199.5 415.2 202.6 C 419.6 205.8 424.4 208.4 429.2 210.8 C 430.0 212.4 429.9 214.2 430.0 215.9 C 429.7 255.2 430.1 294.4 429.8 333.6 C 419.2 343.4 408.4 353.0 398.4 363.4 C 394.5 367.0 391.3 371.8 386.3 374.0 C 380.0 375.6 373.4 374.5 367.0 374.6 C 356.3 374.1 345.7 375.7 335.0 375.7 C 323.6 375.1 312.4 377.0 301.0 376.8 C 291.0 377.0 281.0 375.6 270.9 375.7 C 267.2 375.8 263.3 375.1 260.2 372.8 C 252.3 367.3 244.4 361.9 236.6 356.3 C 233.0 353.6 228.5 352.4 224.0 352.5 C 202.4 352.9 180.9 352.5 159.3 352.7 C 159.4 322.1 159.3 291.6 159.3 261.0 C 159.4 254.5 159.5 248.0 158.8 241.5 C 165.1 241.1 171.4 239.7 177.5 238.3 C 181.3 237.7 184.3 235.2 188.0 234.1 C 191.9 232.7 196.2 232.2 199.6 229.7 C 203.6 226.9 208.0 224.7 212.0 221.9 C 216.0 220.1 218.0 215.9 221.7 213.7 C 226.0 209.6 230.7 205.9 234.2 201.1 C 237.4 198.0 237.5 193.3 239.7 189.7 C 241.4 186.3 243.8 183.3 244.9 179.6 C 246.1 174.0 249.9 169.5 252.0 164.2 C 253.9 160.3 254.7 155.8 256.9 152.0 C 259.2 147.8 260.6 143.2 263.2 139.2 C 267.0 133.3 268.8 126.4 272.5 120.5 C 274.6 113.9 278.2 108.0 280.7 101.6 C 281.3 100.9 281.9 100.2 282.5 99.6 C 283.4 94.2 287.0 89.9 288.9 84.9 C 290.5 81.0 292.3 77.1 294.7 73.5 Z" />
<path fill="#e8e9e9" stroke="#e8e9e9" stroke-width="0.09375" opacity="1.00" d=" M 317.1 96.2 C 323.6 86.6 329.6 76.7 336.4 67.3 C 337.4 74.8 337.1 82.4 337.1 89.9 C 336.2 94.5 335.2 99.1 333.1 103.2 C 331.4 110.5 328.0 117.4 327.9 125.0 C 328.0 143.0 328.0 161.0 328.0 179.0 C 327.6 185.2 328.1 191.7 330.8 197.4 C 325.2 195.6 319.5 194.0 313.7 192.7 C 310.3 191.7 306.7 191.1 303.9 188.9 C 303.4 184.8 303.9 180.8 304.4 176.8 C 306.2 162.2 306.7 147.5 308.5 132.9 C 309.3 125.4 309.4 118.0 310.3 110.6 C 310.8 105.1 314.1 100.6 317.1 96.2 Z" />
<path fill="#7e8fbe" stroke="#7e8fbe" stroke-width="0.09375" opacity="1.00" d=" M 38.8 214.8 C 72.3 214.6 105.7 214.6 139.2 214.8 C 139.3 225.6 139.7 236.4 139.0 247.2 C 105.7 247.4 72.3 247.4 39.0 247.2 C 38.3 236.4 38.7 225.6 38.8 214.8 Z" />
<path fill="#e8e9e9" stroke="#e8e9e9" stroke-width="0.09375" opacity="1.00" d=" M 156.8 251.0 C 157.0 247.8 155.9 243.9 158.8 241.5 C 159.5 248.0 159.4 254.5 159.3 261.0 C 159.3 291.6 159.4 322.1 159.3 352.7 C 180.9 352.5 202.4 352.9 224.0 352.5 C 228.5 352.4 233.0 353.6 236.6 356.3 C 244.4 361.9 252.3 367.3 260.2 372.8 C 263.3 375.1 267.2 375.8 270.9 375.7 C 281.0 375.6 291.0 377.0 301.0 376.8 C 312.4 377.0 323.6 375.1 335.0 375.7 C 345.7 375.7 356.3 374.1 367.0 374.6 C 373.4 374.5 380.0 375.6 386.3 374.0 C 391.3 371.8 394.5 367.0 398.4 363.4 C 408.4 353.0 419.2 343.4 429.8 333.6 C 430.7 347.0 429.9 360.5 430.2 374.0 C 430.2 377.2 430.6 380.5 429.8 383.7 C 428.0 387.7 423.8 389.9 420.9 393.0 C 417.3 396.8 413.3 400.1 409.2 403.3 C 404.7 407.6 400.3 412.0 395.5 415.9 C 372.6 416.3 349.8 415.9 327.0 416.1 C 306.1 416.0 285.2 416.2 264.3 416.0 C 259.4 410.7 252.9 407.4 247.7 402.4 C 241.3 397.8 235.2 392.8 229.0 387.9 C 225.0 385.0 219.9 384.4 215.0 384.8 C 206.0 384.3 197.0 386.3 188.0 386.1 C 177.6 385.9 167.3 386.1 156.9 386.2 C 156.8 341.1 157.0 296.1 156.8 251.0 Z" />
<path fill="#6276ae" stroke="#6276ae" stroke-width="0.09375" opacity="1.00" d=" M 39.0 247.2 C 72.3 247.4 105.7 247.4 139.0 247.2 C 138.9 250.2 138.7 253.1 138.7 256.0 C 138.8 307.6 138.6 359.2 138.7 410.7 C 105.6 410.7 72.4 410.7 39.3 410.7 C 39.4 359.2 39.3 307.6 39.3 256.0 C 39.3 253.1 39.1 250.2 39.0 247.2 Z" />
</svg>
